X:1
T:Title
%%score ( 1 2 ) { 3 | 4 }
L:1/8
Q:1/4=108
M:4/4
K:G
V:1 treble nm="Grand Piano, Unnamed-000"
V:2 treble 
V:3 bass nm="Choir Pad, Nun Freut Euch,87.87.887"
V:4 bass 
V:1
 [DG]2 [EG]2 [GB]2 A-[CA] | G2 [GA]2 [FA]2 [GB]2 | [DG]2 [DB]2 [Gc]2 [Fd]2 | z2 G4 z2 | z8 | %5
w: By~Martin~Luther,~1535 * * * *|||||
 [GB]2 [FA]2 G2 [GA]2 | [FA]2 [GB]2 [DG]2 [DB]2 | [Gc]2 [Fd]2 [GB]2 A2- | [FA]2 G6 | z2 c2 z4 | %10
w: |||||
 [EG]2 [^DF]2 [EG]2 [FA]2 | [GB]2 [DG]2 [DF]2 [DG]2 | z8 | z4 G2 z2 | [Ec]2 [Dd]2 [GB]2 A2- | %15
w: |||||
 [DA-][CA] [B,G]6- | [B,G]2 z2 z4 |] %17
w: ||
V:2
 z4 z2 .D2 | x8 | x8 | [GB]2 z2 F2 G2- | G4 [DG]2 [DG]2 | x8 | x8 | z4 z2 G2 | x8 | %9
 [EG]2 EF [GB]2 [FA]2 | x8 | x8 | D2 [B,G]2 [EA]2 [^DB]2- | [DB]4 B,E [FB]2 | z4 z2 E2 | x8 | x8 |] %17
V:3
 B,2 G,2 D2 D2 | B,2[K:treble] E2 D2 D2 | B,2 G,2[K:bass] G,2 A,2 | G,2 E2 DC B,2- | B,4 B,2 G,2 | %5
 D2 D2 B,2 E2 | D2 D2[K:bass] B,2 G,2 | G,2 A,2 G,2[K:treble] E2 | DC B,6 | D2 C2 D2 D2 | %10
 B,2 B,2 B,2 D2 | D2 D2 C2 B,2 | B,A, G,2 E,2 F,2- | F,4 G,2 F,2 | G,2 D2 E2 G,2 | F,2 G,6- | %16
 G,2 z2 z4 |] %17
V:4
 G,,2 B,,2 G,,2 D,2 | E,2 C,2 D,2 G,2 | G,,2 z2 E,2 D,2 | E,2 C,2 D,2 G,,2- | G,,4 G,,2 B,,2 | %5
 G,,2 D,2 E,2 C,2 | D,2 G,2 G,,2 z2 | E,2 D,2 E,2 C,2 | D,2 G,,6 | G,2 A,2 G,2 D,2 | %10
 E,2 B,,2 E,2 D,2 | G,2 B,2 A,2 G,2 | G,F,E,D, C,2 B,,2- | B,,4 E,2 D,2 | C,2 B,,2 E,D, C,2 | %15
 D,2 G,,6- | G,,2 z2 z4 |] %17

